X: 3382
T: The PLOUGH BOY
%R: march, reel
B: James Kerr "Merry Melodies" v.3 p.42 #382
Z: 2016 John Chambers <jc:trillian.mit.edu>
M: 2/4
L: 1/16
K: D
(ag) |\
f2a2d2f2 | (B4 A2)d2 |\
cdef g2f2 | (f4 e2)(ag) |\
f2a2d2f2 | (B4 A2)d2 |\
cdef g2c2 | d6 :|\
a2 |\
^g2g2g2g2 | a2a2a2a2 |\
^g2g2g2g2 | a6 a2 |\
^g2g2g2g2 | a2e2f2c2 |
d2B2 e2e2 | A4 a3g |\
fgaf defd | BcdB A2d2 |\
cdef agfg | fAdf e2(ag) |\
fgaf defd | BcdB A2d2 |\
cdef gabc' | d'6 |]

%%sep 1 1 500
%%sep 1 1 500

